!!!COM: Bach, Johann Sebastian
!!!OPR: Joh. Seb. Bachs vierstimmige Choralges‰nge
!!!XEN: Four-part Chorales
!!!OTL: 118. Kyrie! Gott Vater in Ewigkeit
!!!SCT: BWV 371
!!!SCA: Thematisch-systematisches Verzeichnis der musikalischen Werke Johann Sebastian Bach: Bach-Werke-Verzeichnis (Schmieder)
!!!YOR: Bach Gesellschaft Edition xxxix
!!!ENC: Steven Rasmussen
!!!CDT: 1685/3//-1750/7/28/
!!!OCY: Deutschland
!!!YEC: Copyright (c) 1994, 2000 Center for Computer Assisted Research in the Humanities
!!!YEM: Rights to all derivative editions reserved
!!!YEN: United States of America
**kern	**silbe	**kern	**silbe	**kern	**silbe	**kern	**silbe
*I:[BASSO]	*I:[BASSO]	*I:[TENORE]	*I:[TENORE]	*I:[ALTO]	*I:[ALTO]	*I:[SOPRANO]	*I:[SOPRANO]
*clefF4	*	*clefGv2	*	*clefG2	*	*clefG2	*
*k[]	*	*k[]	*	*k[]	*	*k[]	*
*C:	*	*C:	*	*C:	*	*C:	*
*M4/4	*	*M4/4	*	*M4/4	*	*M4/4	*
=1-	=1-	=1-	=1-	=1-	=1-	=1-	=1-
4.E	Ky-	4.B	Ky-	8eL	Ky-	2g	Ky-
.	.	.	.	8fJ	.	.	.
.	.	.	.	[4g	.	.	.
8D	.	16cLL	.	.	.	.	.
.	.	16dJJ	.	.	.	.	.
4C	.	8eL	.	8gL]	.	2a	-ri-
.	.	8AJ	.	16f#L	.	.	.
.	.	.	.	16eJJ	.	.	.
4D	-ri-	4d	-ri-	4f#	-ri-	.	.
=2	=2	=2	=2	=2	=2	=2	=2
2GG;	-e!	2d;	-e!	2g;	-e!	2b;	-e!
4D	Gott	4d	Gott	4f	.	4a	Gott
8AAL	Va-	8cL	Va-	4e	.	4cc	Va-
8BBJ	.	8dJ	.	.	.	.	.
=3	=3	=3	=3	=3	=3	=3	=3
8CL	-ter	[2e	-ter	4a	.	4cc	-ter
8DJ	.	.	.	.	.	.	.
8EL	in	.	.	4g	.	4b	in
8DJ	.	.	.	.	.	.	.
8CL	E-	8e]	.	8gL	.	4a	E-
8AAJ	.	8c	in	16f#L	.	.	.
.	.	.	.	16eJJ	.	.	.
4D	-wig-	8A	E-	4f#	.	4a	-wig-
.	.	16dLL	-wig-	.	.	.	.
.	.	16cJJ	.	.	.	.	.
=4	=4	=4	=4	=4	=4	=4	=4
2GG;	-keit!	2B;	-keit!	2d;	.	2g;	-keit!
8D	Gross	8dL	.	8fL	.	4a	Gross
8E	ist	16cL	.	8eJ	.	.	.
.	.	16B-JJ	.	.	.	.	.
[4F	dein'	4A	.	8dL	.	4a	ist
.	.	.	.	8c#J	.	.	.
=5	=5	=5	=5	=5	=5	=5	=5
8FL]	.	4B-	dein'	8d	dein'	4g	dein'
8EJ	.	.	.	8c#	Barm-	.	.
8FL	Barm-	8AL	Barm-	[4d	-her-	4f	Barm-
8B-J	.	8dJ	.	.	.	.	.
8GL	-her-	8B-L	-her-	8dL]	.	4e	-her-
8EJ	.	8GJ	.	16c#L	.	.	.
.	.	.	.	16BJJ	.	.	.
8AL	-zig-	8EL	-zig-	4c#	-zig-	4e	-zig-
8AAJ	.	16AL	.	.	.	.	.
.	.	16GJJ	.	.	.	.	.
=6	=6	=6	=6	=6	=6	=6	=6
2D;	-keit,	2F;	-keit,	2A;	-keit,	2d;	-keit,
4.D	.	4F	.	4d	.	4d	al-
.	.	8EL	.	4e	.	4a	-ler
8C#	.	8AJ	.	.	.	.	.
=7	=7	=7	=7	=7	=7	=7	=7
(8D	Ding'	8AL	Ding'	16fLL	Ding'	4a	Ding'
.	.	.	.	16eJJ	.	.	.
4F)	.	16dL	.	4d	.	.	.
.	.	16cJJ	.	.	.	.	.
.	.	8BL	ein	.	.	4g	ein
8E	ein	16cL	.	16eLL	ein	.	.
.	.	16BJJ	.	16dJJ	.	.	.
(8F	Sch√∂-	8AL	Sch√∂-	(8c	Sch√∂-	4a	Sch√∂-
4A)	.	8cJ	.	4f)	.	.	.
.	.	8dL	-pfer	.	.	4b	-pfer
8G#	-pfer	16cL	.	[8e	-pfer	.	.
.	.	16BJJ	.	.	.	.	.
=8	=8	=8	=8	=8	=8	=8	=8
(8A	und	8AL	und	16eLL]	.	4cc	und
.	.	.	.	16f#JJ	.	.	.
4E)	.	16GL	.	4g	und	.	.
.	.	16AJJ	.	.	.	.	.
.	.	8BL	Re-	.	.	4b	Re-
8D	Re-	16cL	.	8g	Re-	.	.
.	.	16dJJ	.	.	.	.	.
8CL	-gie-	8eL	-gie-	8gL	-gie-	2a	-gie-
8AAJ	.	8c	.	16f#L	.	.	.
.	.	.	.	16eJJ	.	.	.
4D	.	8A	.	4f#	.	.	.
.	.	8dJ	.	.	.	.	.
=9	=9	=9	=9	=9	=9	=9	=9
2GG;	-rer!	2B;	-rer!	2d;	-rer!	2g;	-rer!
4C	E-	4.c	E-	4e	E-	4g	E-
8DL	.	.	.	4d	.	8fL	.
8EJ	.	8B-	.	.	.	8gJ	.
=10	=10	=10	=10	=10	=10	=10	=10
4F	.	8AL	.	8cL	.	4a	.
.	.	8BJ	.	8dJ	.	.	.
4C	.	8cL	.	4e	.	4g	.
.	.	8B-J	.	.	.	.	.
4C#	-le-	(8A	-le-	4e	-le-	4g	-le-
.	.	4B-)	.	.	.	.	.
4D	-i-	.	.	4d	-i-	4f	-i-
.	.	8A	-i-	.	.	.	.
=11	=11	=11	=11	=11	=11	=11	=11
1E;	-son!	4A	-son!	4c	-son!	1e;	-son!
.	.	8G#L	.	8BL	.	.	.
.	.	8F#J	.	8AJ	.	.	.
.	.	2G#;	.	2B;	.	.	.
=12||	=12||	=12||	=12||	=12||	=12||	=12||	=12||
8EL	Chri-	4G	Chri-	4B	Chri-	(2e	Chri-
8DJ	.	.	.	.	.	.	.
2C	.	8AL	.	8cL	.	.	.
.	.	8GJ	.	8BJ	.	.	.
.	.	4F#	.	4A	.	2d)	.
8BBL	.	[4G	.	8BL	.	.	.
8AAJ	.	.	.	8cJ	.	.	.
=13	=13	=13	=13	=13	=13	=13	=13
4BB	.	8GL]	.	8dL	.	2g	-ste,
.	.	8dJ	.	8fJ	.	.	.
2E	-ste,	8cL	-ste,	8eL	-ste,	.	.
.	.	8BJ	.	8dJ	.	.	.
.	.	4.A	al-	8cL	al-	(4a	al-
.	.	.	.	16dL	.	.	.
.	.	.	.	16eJJ	.	.	.
4D	al-	.	.	4f	-ler	4b)	.
.	.	16GLL	.	.	.	.	.
.	.	16FJJ	.	.	.	.	.
=14	=14	=14	=14	=14	=14	=14	=14
4E	-ler	8G	.	16eLL	Welt	4cc	-ler
.	.	.	.	16fJJ	.	.	.
.	.	16cLL	-ler	4g	.	.	.
.	.	16B-JJ	.	.	.	.	.
4F	Welt	4A	Welt	.	.	4cc	Welt
.	.	.	.	[8f	Trost!	.	.
2C;	Trost!	2G;	Trost!	8fL]	.	2cc;	Trost!
.	.	.	.	16eL	.	.	.
.	.	.	.	16dJJ	.	.	.
.	.	.	.	4e;	.	.	.
=15	=15	=15	=15	=15	=15	=15	=15
4AA	uns	4A	uns	16eLL	uns	4cc	uns
.	.	.	.	16f#JJ	.	.	.
.	.	.	.	4g	.	.	.
4D	S√ºn-	4A	S√ºn-	.	.	4cc	S√ºn-
.	.	.	.	4f#	S√ºn-	.	.
8GG	-der	8BL	-der	.	.	4b	-der
4G	al-	8GJ	.	16eLL	.	.	.
.	.	.	.	16dJJ	.	.	.
.	.	8eL	al-	16c#LL	-der	4a	al-
.	.	.	.	16BJJ	.	.	.
[8F	-lein	16dL	.	8A	al-	.	.
.	.	16cJJ	.	.	.	.	.
=16	=16	=16	=16	=16	=16	=16	=16
8FL]	.	8BL	-lein	(8d	-lein	4g	-lein
8EJ	.	16cL	.	4c)	.	.	.
.	.	16B-JJ	.	.	.	.	.
8FL	du	8AL	du	.	.	4a	du
8F#J	.	16dL	.	4a	du	.	.
.	.	16cJJ	.	.	.	.	.
8GL	hast	8BnL	hast	.	.	4b	hast
16BBL	.	[8dJ	.	8g	.	.	.
16CJJ	.	.	.	.	.	.	.
8DL	er-	16dLL]	.	16f#LL	hast	4b	er-
.	.	16cJJ	.	16eJJ	.	.	.
8D#J	.	16BLL	er-	8f#	er-	.	.
.	.	16AJJ	.	.	.	.	.
=17	=17	=17	=17	=17	=17	=17	=17
2E;	-l√∂st;	2G;	-l√∂st;	2e;	-l√∂st;	2b;	-l√∂st;
8EL	Je-	4G	Je-	4.c	Je-	4e	Je-
8CJ	.	.	.	.	.	.	.
8GL	.	4G	-su,	.	.	4d	.
8FJ	.	.	.	8B	.	.	.
=18	=18	=18	=18	=18	=18	=18	=18
4.E	.	4G	Got-	8cL	.	4g	.
.	.	.	.	16dL	.	.	.
.	.	.	.	16eJJ	.	.	.
.	.	8cL	.	16fLL	-su,	8aL	-su,
.	.	.	.	16eJ	.	.	.
8D	-su,	8dJ	.	8fJ	.	8bJ	.
8CL	Got-	4G	.	4e	Got-	4cc	Got-
8BBJ	.	.	.	.	.	.	.
8AAL	-tes	[4A	.	[4f	.	4cc	-tes
8BBJ	.	.	.	.	.	.	.
=19	=19	=19	=19	=19	=19	=19	=19
2C;	Sohn!	8A]	.	8f]	.	2cc;	Sohn!
.	.	16GLL	-tes	16eLL	-tes	.	.
.	.	16FJJ	.	16dJJ	.	.	.
.	.	4G;	Sohn!	4e;	Sohn!	.	.
8AAL	Un-	8c	Un-	8e	Un-	4cc	Un-
8BBJ	.	8d	-ser	16aLL	-ser	.	.
.	.	.	.	16g#JJ	.	.	.
8CL	-ser	[4e	Mitt-	[4a	Mitt-	4cc	-ser
8DJ	.	.	.	.	.	.	.
=20	=20	=20	=20	=20	=20	=20	=20
8EL	Mitt-	8eL]	.	8a]	.	(4b	Mitt-
8BB	.	8dJ	.	4g	.	.	.
8C	.	8eL	.	.	.	4a)	.
8DJ	.	16dL	.	8f#	.	.	.
.	.	16cJJ	.	.	.	.	.
4GG;	-ler	4B;	-ler	4d;	-ler	4g;	-ler
8DL	bist	[4d	bist	8fnL	bist	4a	bist
8EJ	.	.	.	8gJ	.	.	.
=21	=21	=21	=21	=21	=21	=21	=21
8FL	in	8dL]	.	8a	in	4a	in
8AAJ	.	8c#J	.	16gLL	dem	.	.
.	.	.	.	16fJJ	.	.	.
8BBL	dem	8d	in	8f	h√∂ch-	4g	dem
8C#J	.	8A	dem	4e	.	.	.
8DL	h√∂ch-	(4A	h√∂ch-	.	.	4f	h√∂ch-
8FFJ	.	.	.	4d	.	.	.
8GGL	-sten	8B-)	.	.	.	4e	-sten
8AAJ	.	16ALL	-sten	8c#	-sten	.	.
.	.	16GJJ	.	.	.	.	.
=22	=22	=22	=22	=22	=22	=22	=22
2DD;	Thron,	2F;	Thron,	2A;	Thron,	2d;	Thron,
8DL	zu	8FL	zu	4A	zu	4d	zu
8EJ	.	8GJ	.	.	.	.	.
8FL	dir	8AL	dir	16dLL	dir	4a	dir
.	.	.	.	16eJ	.	.	.
8DJ	.	8dJ	.	8fJ	.	.	.
=23	=23	=23	=23	=23	=23	=23	=23
8BB-	schrei-	8dL	schrei-	4.f	schrei-	4a	schrei-
8BBn	-en	8BJ	.	.	.	.	.
[4C	wir	8GL	-en	.	.	4g	-en
.	.	16cL	.	[8e	.	.	.
.	.	16BJJ	.	.	.	.	.
8CL]	.	4.A	wir	16eLL]	.	4a	wir
.	.	.	.	16dJJ	.	.	.
8C#J	.	.	.	16eLL	-en	.	.
.	.	.	.	16gJJ	.	.	.
8DL	aus	.	.	16fLL	wir	4b	aus
.	.	.	.	16eJJ	.	.	.
8D#J	.	16GLL	aus	16f#LL	aus	.	.
.	.	16F#JJ	.	16aJJ	.	.	.
=24	=24	=24	=24	=24	=24	=24	=24
8EL	Her-	8EL	Her-	8gL	Her-	4cc	Her-
8F#	.	8AJ	.	8dJ	.	.	.
8G	.	8B	-zens	8d	-zens	4b	-zens
8EJ	.	4e	.	4g	.	.	.
8CL	-zens	.	.	.	.	2a	Be-
8AAJ	.	8c	.	16f#LL	.	.	.
.	.	.	.	16eJJ	.	.	.
4D	Be-	8AL	Be-	4f#	Be-	.	.
.	.	16dL	.	.	.	.	.
.	.	16cJJ	.	.	.	.	.
=25	=25	=25	=25	=25	=25	=25	=25
2GG;	-gier!	2B;	-gier!	2d;	-gier!	2g;	-gier!
8CL	E-	4.c	E-	4e	E-	4g	E-
8BB-	.	.	.	.	.	.	.
8AA	.	.	.	8fL	.	8fL	.
8GGJ	.	8B-	.	8eJ	.	8gJ	.
=26	=26	=26	=26	=26	=26	=26	=26
8FFL	.	16cLL	.	4.f	.	4a	.
.	.	16B-J	.	.	.	.	.
8AA	.	8cJ	.	.	.	.	.
8BB-	.	8dL	.	.	.	4g	.
8BBnJ	.	8GJ	.	16eLL	.	.	.
.	.	.	.	16dJJ	.	.	.
8CL	-le-	8cL	-le-	4.e	-le-	4g	-le-
8C#J	.	8B-J	.	.	.	.	.
[4D	.	8AL	.	.	.	4f	-i-
.	.	16BnL	.	16dLL	.	.	.
.	.	16AJJ	.	16cJJ	.	.	.
=27	=27	=27	=27	=27	=27	=27	=27
8DL]	.	4G#	.	8BL	.	1e;	-son!
16CL	.	.	.	8dJ	.	.	.
16BBJJ	.	.	.	.	.	.	.
8CL	-i-	2A	-i-	2c	-i-	.	.
8DJ	.	.	.	.	.	.	.
2E;	-son!	.	.	.	.	.	.
.	.	4G#;	-son!	4B;	-son!	.	.
=28||	=28||	=28||	=28||	=28||	=28||	=28||	=28||
(4EE	.	2e	.	2g	.	2b	Ky-
2E)	.	.	.	.	.	.	.
.	.	2e	.	2g	.	2cc	-ri-
8DL	.	.	.	.	.	.	.
8CJ	.	.	.	.	.	.	.
=29	=29	=29	=29	=29	=29	=29	=29
2G;	.	2B;	.	2g;	.	2dd;	-e!
4r	.	4r	.	4r	.	4r	.
8GGL	.	4d	.	4g	.	4b	Gott
8AAJ	.	.	.	.	.	.	.
=30	=30	=30	=30	=30	=30	=30	=30
4BB	.	4d	hei-	4.g	hei-	4dd	hei-
8EEL	.	8eL	.	.	.	4cc	.
8FF#J	.	8dJ	.	4a	.	.	.
8GGL	.	4d	-li-	.	.	4b	-li-
8BBJ	.	.	.	4g	-li-	.	.
8CL	.	8eL	-ger	.	.	4a	-ger
8DJ	.	16dL	.	8f#	-ger	.	.
.	.	16cJJ	.	.	.	.	.
=31	=31	=31	=31	=31	=31	=31	=31
2GG;	.	2B;	.	2d;	.	2g;	Geist!
8EEL	.	4e	.	4g	.	4b	Tr√∂st',
8EJ	.	.	.	.	.	.	.
8DL	.	4e	st√§rk'	[4a	st√§rk'	4cc	st√§rk'
8CJ	.	.	.	.	.	.	.
=32	=32	=32	=32	=32	=32	=32	=32
(8BB	.	4.d	uns	8a]	.	4dd	uns
4B)	.	.	.	16gLL	uns	.	.
.	.	.	.	16f#JJ	.	.	.
.	.	.	.	4g	im	8bL	im
8A	im	8c	im	.	.	8ccJ	.
8G	Glau-	4.B	Glau-	4.g	.	4dd	Glau-
8F#	-ben	.	.	.	.	.	.
[4E	al-	.	.	.	.	4cc	-ben
.	.	[8A	-ben	8f#	.	.	.
=33	=33	=33	=33	=33	=33	=33	=33
8EL]	.	8A]	.	16BLL	.	4b	al-
.	.	.	.	16cJ	.	.	.
8BBJ	.	4G	al-	8dJ	.	.	.
8CL	-ler-	.	.	8eL	.	4a	-ler-
8DJ	.	8F#	-ler-	16dL	.	.	.
.	.	.	.	16cJJ	.	.	.
4GG;	-meist,	4G;	-meist,	4B;	.	4g;	-meist,
8DL	dass	8FnL	dass	4d	.	4a	dass
8EJ	.	8GJ	.	.	.	.	.
=34	=34	=34	=34	=34	=34	=34	=34
8F	wir	8A	wir	8dL	.	4a	wir
8F#	am	4c	.	8e-J	.	.	.
[4G	letz-	.	.	8dL	.	4g	am
.	.	8B-	am	8c#J	.	.	.
8GL]	.	8B-L	letz-	4.d	.	4f	letz-
8G#J	.	8BnJ	.	.	.	.	.
8AL	-ten	8EL	-ten	.	.	4e	-ten
8AAJ	.	16AL	.	8c#	.	.	.
.	.	16GJJ	.	.	.	.	.
=35	=35	=35	=35	=35	=35	=35	=35
2D;	End'	2F#;	End'	2A;	.	2d;	End'
(8GG	.	4B	.	4d	.	4d	fr√∂h-
4G)	.	.	.	.	.	.	.
.	.	4c#	.	4e	.	4a	-lich
16F#LL	.	.	.	.	.	.	.
16EJJ	.	.	.	.	.	.	.
=36	=36	=36	=36	=36	=36	=36	=36
8F#L	ab-	4.d	ab-	8A	ab-	4a	ab-
8BJ	.	.	.	(4f#	-schei-	.	.
4.E	-schei-	.	.	.	.	4g	-schei-
.	.	16cLL	-schei-	8e)	.	.	.
.	.	16BJJ	.	.	.	.	.
.	.	8c	.	4.f#	-den	4a	-den
16D#LL	.	4F#	-den	.	.	.	.
16C#JJ	.	.	.	.	.	.	.
8D#	-den	.	.	.	.	4b	aus
8BB	aus	16GLL	aus	16eLL	aus	.	.
.	.	16AJJ	.	16d#JJ	.	.	.
=37	=37	=37	=37	=37	=37	=37	=37
8EL	die-	8G	die-	8e	die-	4cc	die-
8F#	.	4A	.	4d	.	.	.
8G	.	.	.	.	.	4b	-sem
8EJ	.	8G	-sem	4g	-sem	.	.
8CL	-sem	16eLL	E-	.	.	2a	E-
.	.	16dJJ	.	.	.	.	.
8AAJ	.	4c	.	16f#LL	E-	.	.
.	.	.	.	16eJJ	.	.	.
4D	E-	.	.	4f#	.	.	.
.	.	16BLL	.	.	.	.	.
.	.	16AJJ	.	.	.	.	.
=38	=38	=38	=38	=38	=38	=38	=38
2GG;	-lend!	2B;	-lend!	2d;	-lend!	2g;	-lend!
8GL	E-	8BL	E-	8dL	E-	4g	E-
8C#J	.	8B-	.	8e	.	.	.
[4D	.	8A	.	8d	.	8fL	.
.	.	8GJ	.	8eJ	.	8gJ	.
=39	=39	=39	=39	=39	=39	=39	=39
8DL]	.	4.F	.	8fL	.	4a	.
8C	.	.	.	8e	.	.	.
8BB	.	.	.	8d	.	4g	.
8BB-J	.	16ELL	.	8gJ	.	.	.
.	.	16DJJ	.	.	.	.	.
4.AA	-le-	8EL	-le-	8c#L	-le-	4g	-le-
.	.	16FL	.	8AJ	.	.	.
.	.	16GJJ	.	.	.	.	.
.	.	8AL	.	4d	.	4f	-i-
8GG#	.	[8BJ	.	.	.	.	.
=40	=40	=40	=40	=40	=40	=40	=40
8AAL	.	8BL]	.	4c#	.	1e;	-son!
8BBJ	.	16AL	.	.	.	.	.
.	.	16G#JJ	.	.	.	.	.
8CL	-i-	4.A	.	4cn	-i-	.	.
8DJ	.	.	.	.	.	.	.
2E;	-son!	.	.	2B;	-son!	.	.
.	.	16G#LL	-i-	.	.	.	.
.	.	16F#JJ	.	.	.	.	.
.	.	4G#;	-son!	.	.	.	.
==|!	==|!	==|!	==|!	==|!	==|!	==|!	==|!
*-	*-	*-	*-	*-	*-	*-	*-
!!!RWG: Key is interpreted using the Humdrum key tool.
!!!URL-pdf: https://s9.imslp.org/files/imglnks/usimg/6/6b/IMSLP24489-PMLP09471-CCARH_Bach_Chorales.pdf#page=82 Musedata edition
!!!URL-pdf: https://s9.imslp.org/files/imglnks/usimg/7/7a/IMSLP04155-Bach_-_BGA_253-438.pdf#page=64 	Bach-Gesellschaft Ausgabe, Band 39 (pp.175-276) Leipzig: Breitkopf und H‰rtel, 1892. Plate B.W. XXXIX.
!!!END: 1994/07/13
!!!EMD: Converted from MuseData to Humdrum Dec 19, 2000, by Andreas Kornstaedt using muse2kern.
!!!EED: Craig Stuart Sapp
!!!EEV: 2024/03/31
!!!ONB: Some non-unicode characters
!!!filter-keyboard: satb2gs
